img/testimonial-bg2.svg

<svg width="200" height="200" fill="none" xmlns="http://www.w3.org/2000/svg"><path fill="#2C6269" d="M100 100h100V0H100z"/><path fill-rule="evenodd" clip-rule="evenodd" d="M100 200C44.772 200 0 155.228 0 100S44.772 0 100 0s100 44.772 100 100-44.772 100-100 100zm0-67c-18.225 0-33-14.775-33-33s14.775-33 33-33 33 14.775 33 33-14.775 33-33 33z" fill="#012F34"/><path fill-rule="evenodd" clip-rule="evenodd" d="M100 56h100v4H100v-4zm0 8h100v4H100v-4zm100 8H100v4h100v-4zm-100 8h100v4H100v-4zm100 8H100v4h100v-4zm-100 8h100v4H100v-4z" fill="#79C8C7"/><path fill-rule="evenodd" clip-rule="evenodd" d="M200 100h-4v4h4v-4zm-11 0h4v4h-4v-4zm0 8h4v4h-4v-4zm4 8h-4v4h4v-4zm-4 8h4v4h-4v-4zm4 8h-4v4h4v-4zm-4 8h4v4h-4v-4zm-3-40h-4v4h4v-4zm0 8h-4v4h4v-4zm-4 8h4v4h-4v-4zm4 8h-4v4h4v-4zm-4 8h4v4h-4v-4zm4 8h-4v4h4v-4zm14-32h-4v4h4v-4zm-21-8h-4v4h4v-4zm0 8h-4v4h4v-4zm-4 8h4v4h-4v-4zm4 8h-4v4h4v-4zm-4 8h4v4h-4v-4zm4 8h-4v4h4v-4zm21-24h-4v4h4v-4zm-28-16h-4v4h4v-4zm0 8h-4v4h4v-4zm-4 8h4v4h-4v-4zm4 8h-4v4h4v-4zm-4 8h4v4h-4v-4zm4 8h-4v4h4v-4zm28-16h-4v4h4v-4zm-35-24h-4v4h4v-4zm0 8h-4v4h4v-4zm-4 8h4v4h-4v-4zm4 8h-4v4h4v-4zm-4 8h4v4h-4v-4zm4 8h-4v4h4v-4zm35-8h-4v4h4v-4zm-42-32h-4v4h4v-4zm0 8h-4v4h4v-4zm-4 8h4v4h-4v-4zm4 8h-4v4h4v-4zm-4 8h4v4h-4v-4zm4 8h-4v4h4v-4zm42 0h-4v4h4v-4zm-49-40h-4v4h4v-4zm0 8h-4v4h4v-4zm-4 8h4v4h-4v-4zm4 8h-4v4h4v-4zm-4 8h4v4h-4v-4zm4 8h-4v4h4v-4z" fill="#F67E7E"/></svg>

<svg width="200" height="200" viewBox="0 0 200 200" fill="none" xmlns="http://www.w3.org/2000/svg">
<g id="Group 8">
<rect id="Rectangle" width="100" height="100" transform="matrix(1 0 0 -1 100 100)" fill="#2C6269"/>
<path id="Combined Shape Copy" fill-rule="evenodd" clip-rule="evenodd" d="M100 200C44.7715 200 0 155.228 0 100C0 44.7715 44.7715 0 100 0C155.228 0 200 44.7715 200 100C200 155.228 155.228 200 100 200ZM100 133C81.7746 133 67 118.225 67 100C67 81.7746 81.7746 67 100 67C118.225 67 133 81.7746 133 100C133 118.225 118.225 133 100 133Z" fill="#012F34"/>
<path id="Combined Shape" fill-rule="evenodd" clip-rule="evenodd" d="M100 56H200V60H100V56ZM100 64H200V68H100V64ZM200 72H100V76H200V72ZM100 80H200V84H100V80ZM200 88H100V92H200V88ZM100 96H200V100H100V96Z" fill="#79C8C7"/>
<path id="Combined Shape_2" fill-rule="evenodd" clip-rule="evenodd" d="M200 100H196V104H200V100ZM189 100H193V104H189V100ZM189 108H193V112H189V108ZM193 116H189V120H193V116ZM189 124H193V128H189V124ZM193 132H189V136H193V132ZM189 140H193V144H189V140ZM186 100H182V104H186V100ZM186 108H182V112H186V108ZM182 116H186V120H182V116ZM186 124H182V128H186V124ZM182 132H186V136H182V132ZM186 140H182V144H186V140ZM200 108H196V112H200V108ZM179 100H175V104H179V100ZM179 108H175V112H179V108ZM175 116H179V120H175V116ZM179 124H175V128H179V124ZM175 132H179V136H175V132ZM179 140H175V144H179V140ZM200 116H196V120H200V116ZM172 100H168V104H172V100ZM172 108H168V112H172V108ZM168 116H172V120H168V116ZM172 124H168V128H172V124ZM168 132H172V136H168V132ZM172 140H168V144H172V140ZM200 124H196V128H200V124ZM165 100H161V104H165V100ZM165 108H161V112H165V108ZM161 116H165V120H161V116ZM165 124H161V128H165V124ZM161 132H165V136H161V132ZM165 140H161V144H165V140ZM200 132H196V136H200V132ZM158 100H154V104H158V100ZM158 108H154V112H158V108ZM154 116H158V120H154V116ZM158 124H154V128H158V124ZM154 132H158V136H154V132ZM158 140H154V144H158V140ZM200 140H196V144H200V140ZM151 100H147V104H151V100ZM151 108H147V112H151V108ZM147 116H151V120H147V116ZM151 124H147V128H151V124ZM147 132H151V136H147V132ZM151 140H147V144H151V140Z" fill="#F67E7E"/>
</g>
</svg>
